public/icons/product-light-control.svg

<svg width="48" height="48" viewBox="0 0 48 48" fill="none" xmlns="http://www.w3.org/2000/svg">
<g clip-path="url(#clip0_573_1524)">
<path d="M24 19.125C27.722 19.125 30.75 16.097 30.75 12.375C30.75 8.65303 27.722 5.625 24 5.625C20.278 5.625 17.25 8.65303 17.25 12.375C17.25 16.097 20.278 19.125 24 19.125ZM24 8.4375C26.1712 8.4375 27.9375 10.2038 27.9375 12.375C27.9375 14.5462 26.1712 16.3125 24 16.3125C21.8288 16.3125 20.0625 14.5462 20.0625 12.375C20.0625 10.2038 21.8288 8.4375 24 8.4375Z" fill="#AE9F91"/>
<path d="M24 2.8125C24.7767 2.8125 25.4062 2.1829 25.4062 1.40625C25.4062 0.6296 24.7767 0 24 0C23.2233 0 22.5938 0.6296 22.5938 1.40625C22.5938 2.1829 23.2233 2.8125 24 2.8125Z" fill="#AE9F91"/>
<path d="M13.0312 13.7812C13.8079 13.7812 14.4375 13.1517 14.4375 12.375C14.4375 11.5983 13.8079 10.9688 13.0312 10.9688C12.2546 10.9688 11.625 11.5983 11.625 12.375C11.625 13.1517 12.2546 13.7812 13.0312 13.7812Z" fill="#AE9F91"/>
<path d="M34.9688 13.7812C35.7454 13.7812 36.375 13.1517 36.375 12.375C36.375 11.5983 35.7454 10.9688 34.9688 10.9688C34.1921 10.9688 33.5625 11.5983 33.5625 12.375C33.5625 13.1517 34.1921 13.7812 34.9688 13.7812Z" fill="#AE9F91"/>
<path d="M24 24.75C24.7767 24.75 25.4062 24.1204 25.4062 23.3438C25.4062 22.5671 24.7767 21.9375 24 21.9375C23.2233 21.9375 22.5938 22.5671 22.5938 23.3438C22.5938 24.1204 23.2233 24.75 24 24.75Z" fill="#AE9F91"/>
<path d="M16.2441 21.5374C17.0208 21.5374 17.6504 20.9078 17.6504 20.1311C17.6504 19.3545 17.0208 18.7249 16.2441 18.7249C15.4675 18.7249 14.8379 19.3545 14.8379 20.1311C14.8379 20.9078 15.4675 21.5374 16.2441 21.5374Z" fill="#AE9F91"/>
<path d="M31.7559 6.02515C32.5325 6.02515 33.1621 5.39555 33.1621 4.6189C33.1621 3.84225 32.5325 3.21265 31.7559 3.21265C30.9792 3.21265 30.3496 3.84225 30.3496 4.6189C30.3496 5.39555 30.9792 6.02515 31.7559 6.02515Z" fill="#AE9F91"/>
<path d="M16.2441 6.02515C17.0208 6.02515 17.6504 5.39555 17.6504 4.6189C17.6504 3.84225 17.0208 3.21265 16.2441 3.21265C15.4675 3.21265 14.8379 3.84225 14.8379 4.6189C14.8379 5.39555 15.4675 6.02515 16.2441 6.02515Z" fill="#AE9F91"/>
<path d="M31.7559 21.5374C32.5325 21.5374 33.1621 20.9078 33.1621 20.1311C33.1621 19.3545 32.5325 18.7249 31.7559 18.7249C30.9792 18.7249 30.3496 19.3545 30.3496 20.1311C30.3496 20.9078 30.9792 21.5374 31.7559 21.5374Z" fill="#AE9F91"/>
<path d="M1.40625 33H29.625V34.4062C29.625 35.1829 30.2546 35.8125 31.0312 35.8125H39.8438C40.6204 35.8125 41.25 35.1829 41.25 34.4062V33H46.5938C47.3704 33 48 32.3704 48 31.5938C48 30.8171 47.3704 30.1875 46.5938 30.1875H41.25V28.7812C41.25 28.0046 40.6204 27.375 39.8438 27.375H31.0312C30.2546 27.375 29.625 28.0046 29.625 28.7812V30.1875H1.40625C0.629625 30.1875 0 30.8171 0 31.5938C0 32.3704 0.629625 33 1.40625 33ZM32.4375 30.1875H38.4375V33H32.4375V30.1875Z" fill="#AE9F91"/>
<path d="M46.5938 42.375H29.8125V40.9688C29.8125 40.1921 29.1829 39.5625 28.4062 39.5625H19.5938C18.8171 39.5625 18.1875 40.1921 18.1875 40.9688V42.375H1.40625C0.629625 42.375 0 43.0046 0 43.7812C0 44.5579 0.629625 45.1875 1.40625 45.1875H18.1875V46.5938C18.1875 47.3704 18.8171 48 19.5938 48H28.4062C29.1829 48 29.8125 47.3704 29.8125 46.5938V45.1875H46.5938C47.3704 45.1875 48 44.5579 48 43.7812C48 43.0046 47.3704 42.375 46.5938 42.375ZM27 45.1875H21V42.375H27V45.1875Z" fill="#AE9F91"/>
</g>
<defs>
<clipPath id="clip0_573_1524">
<rect width="48" height="48" fill="white"/>
</clipPath>
</defs>
</svg>

<svg xmlns="http://www.w3.org/2000/svg" fill="none" viewBox="0 0 48 48"><g fill="#ae9f91" clip-path="url(#a)"><path d="M24 19.125a6.76 6.76 0 0 0 6.75-6.75A6.76 6.76 0 0 0 24 5.625a6.76 6.76 0 0 0-6.75 6.75 6.76 6.76 0 0 0 6.75 6.75m0-10.687a3.94 3.94 0 0 1 3.938 3.937A3.94 3.94 0 0 1 24 16.313a3.94 3.94 0 0 1-3.937-3.938A3.94 3.94 0 0 1 24 8.438m0-5.625A1.406 1.406 0 1 0 24 0a1.406 1.406 0 0 0 0 2.813M13.031 13.781a1.406 1.406 0 1 0 0-2.812 1.406 1.406 0 0 0 0 2.812m21.938 0a1.406 1.406 0 1 0 0-2.812 1.406 1.406 0 0 0 0 2.812M24 24.75a1.406 1.406 0 1 0 0-2.812 1.406 1.406 0 0 0 0 2.812m-7.756-3.213a1.406 1.406 0 1 0 0-2.812 1.406 1.406 0 0 0 0 2.812M31.756 6.025a1.406 1.406 0 1 0 0-2.812 1.406 1.406 0 0 0 0 2.812m-15.512 0a1.406 1.406 0 1 0 0-2.812 1.406 1.406 0 0 0 0 2.812m15.512 15.512a1.406 1.406 0 1 0 0-2.812 1.406 1.406 0 0 0 0 2.812M1.406 33h28.219v1.406c0 .777.63 1.407 1.406 1.407h8.813c.776 0 1.406-.63 1.406-1.407V33h5.344a1.406 1.406 0 0 0 0-2.812H41.25V28.78c0-.776-.63-1.406-1.406-1.406H31.03c-.776 0-1.406.63-1.406 1.406v1.407H1.406a1.406 1.406 0 0 0 0 2.812m31.032-2.812h6V33h-6zm14.156 12.188H29.813v-1.406c0-.777-.63-1.407-1.407-1.407h-8.812c-.777 0-1.407.63-1.407 1.407v1.406H1.407a1.406 1.406 0 0 0 0 2.813h16.78v1.406c0 .776.63 1.406 1.407 1.406h8.812c.777 0 1.407-.63 1.407-1.406v-1.407h16.78a1.406 1.406 0 0 0 0-2.812M27 45.188h-6v-2.813h6z"/></g><defs><clipPath id="a"><path fill="#fff" d="M0 0h48v48H0z"/></clipPath></defs></svg>
